src/assets/icons/drawer/icon-gallery.svg

<svg xmlns="http://www.w3.org/2000/svg" width="48" height="48" fill="#78ff48" xmlns:v="https://vecta.io/nano"><path opacity=".35" d="M32 38H12a6 6 0 0 1-6-6V12a6 6 0 0 1 6-6h20a6 6 0 0 1 6 6v20a6 6 0 0 1-6 6z"/><path d="M37.72 10.28c.164.548.28 1.118.28 1.72v20a6 6 0 0 1-6 6H12c-.602 0-1.172-.116-1.72-.28C11.024 40.19 13.288 42 16 42h20a6 6 0 0 0 6-6V16c0-2.712-1.81-4.976-4.28-5.72zM27 20a3 3 0 1 0 0-6 3 3 0 1 0 0 6zM12 30.75c0 .684.56 1.25 1.25 1.25h17.5A1.25 1.25 0 0 0 32 30.75c0-1.704-.944-6.75-3-6.75-1.014 0-2.59 2-4 2-2.8 0-5.5-6-8-6s-5 7.452-5 10.75z"/></svg>

<svg width="48" height="48" viewBox="0 0 48 48" fill="none" xmlns="http://www.w3.org/2000/svg">
<path opacity="0.35" d="M32 38H12C8.686 38 6 35.314 6 32V12C6 8.686 8.686 6 12 6H32C35.314 6 38 8.686 38 12V32C38 35.314 35.314 38 32 38Z" fill="#78FF48"/>
<path d="M37.72 10.28C37.884 10.828 38 11.398 38 12V32C38 35.314 35.314 38 32 38H12C11.398 38 10.828 37.884 10.28 37.72C11.024 40.19 13.288 42 16 42H36C39.314 42 42 39.314 42 36V16C42 13.288 40.19 11.024 37.72 10.28Z" fill="#78FF48"/>
<path d="M27 20C28.6569 20 30 18.6569 30 17C30 15.3431 28.6569 14 27 14C25.3431 14 24 15.3431 24 17C24 18.6569 25.3431 20 27 20Z" fill="#78FF48"/>
<path d="M12 30.75C12 31.434 12.56 32 13.25 32H30.75C31.44 32 32 31.444 32 30.75C32 29.046 31.056 24 29 24C27.986 24 26.41 26 25 26C22.2 26 19.5 20 17 20C14.5 20 12 27.452 12 30.75Z" fill="#78FF48"/>
</svg>
